X:11
T:Waltz.
C:John Malchair's Third Collection of Tunes
F:https://www.vwml.org/record/Malchair/3619/p1
F:www.vwml.org/topics/historic-dance-and-tune-books/Malchair
Z:Eric Conrad Feb 2020
M:3/8
L:1/16
R:waltz
K:D
P:A
|: f2 | gebgec | dAfdAF | GEecAc | dAGFED | gebgec | dAfdAF | GeFdEc | d4 :|
P:B
|: F2 | GEecAc | dAfdAF | GEecAc | dAGFED | GEecAc | dAfdAF | GEecAc | d4 :|

